src/icons/squares-bg.svg

<svg viewBox="0 0 360 184" fill="none" xmlns="http://www.w3.org/2000/svg"><path d="M360 48H0v80h360V48z" fill="url(#a)"/><path d="M112 64H32v80h80V64z" fill="url(#b)"/><path d="M96 88H0v96h96V88z" fill="url(#c)"/><path d="M0 0h360v80H0V0z" fill="url(#d)"/><path d="M248 16h80v80h-80V16z" fill="url(#e)"/><path d="M264 40h96v96h-96V40z" fill="url(#f)"/><defs><linearGradient id="a" x1="360" y1="128" x2="9.651" y2="69.851" gradientUnits="userSpaceOnUse"><stop offset=".694" stop-color="#1161FE" stop-opacity="0"/><stop offset="1" stop-color="#1161FE" stop-opacity=".08"/></linearGradient><linearGradient id="b" x1="112" y1="144" x2="32.109" y2="141.053" gradientUnits="userSpaceOnUse"><stop stop-color="#1161FE" stop-opacity="0"/><stop offset="1" stop-color="#1161FE" stop-opacity=".08"/></linearGradient><linearGradient id="c" x1="96" y1="184" x2=".13" y2="180.464" gradientUnits="userSpaceOnUse"><stop stop-color="#1161FE" stop-opacity="0"/><stop offset="1" stop-color="#1161FE" stop-opacity=".08"/></linearGradient><linearGradient id="d" x1="0" y1="80" x2="350.349" y2="21.851" gradientUnits="userSpaceOnUse"><stop offset=".694" stop-color="#1161FE" stop-opacity="0"/><stop offset="1" stop-color="#1161FE" stop-opacity=".08"/></linearGradient><linearGradient id="e" x1="248" y1="96" x2="327.891" y2="93.053" gradientUnits="userSpaceOnUse"><stop stop-color="#1161FE" stop-opacity="0"/><stop offset="1" stop-color="#1161FE" stop-opacity=".08"/></linearGradient><linearGradient id="f" x1="264" y1="136" x2="359.87" y2="132.464" gradientUnits="userSpaceOnUse"><stop stop-color="#1161FE" stop-opacity="0"/><stop offset="1" stop-color="#1161FE" stop-opacity=".08"/></linearGradient></defs></svg>

<svg viewBox="0 0 360 184" fill="none" xmlns="http://www.w3.org/2000/svg">
<path d="M360 48L0 48V128H360L360 48Z" fill="url(#paint0_linear)"/>
<path d="M112 64L32 64V144H112L112 64Z" fill="url(#paint1_linear)"/>
<path d="M96 88L0 88V184H96L96 88Z" fill="url(#paint2_linear)"/>
<path d="M0 0L360 0V80H0L0 0Z" fill="url(#paint3_linear)"/>
<path d="M248 16L328 16V96H248L248 16Z" fill="url(#paint4_linear)"/>
<path d="M264 40L360 40V136H264L264 40Z" fill="url(#paint5_linear)"/>
<defs>
<linearGradient id="paint0_linear" x1="360" y1="128" x2="9.65132" y2="69.8508" gradientUnits="userSpaceOnUse">
<stop offset="0.693873" stop-color="#1161FE" stop-opacity="0"/>
<stop offset="1" stop-color="#1161FE" stop-opacity="0.08"/>
</linearGradient>
<linearGradient id="paint1_linear" x1="112" y1="144" x2="32.1087" y2="141.053" gradientUnits="userSpaceOnUse">
<stop stop-color="#1161FE" stop-opacity="0"/>
<stop offset="1" stop-color="#1161FE" stop-opacity="0.08"/>
</linearGradient>
<linearGradient id="paint2_linear" x1="96" y1="184" x2="0.130431" y2="180.464" gradientUnits="userSpaceOnUse">
<stop stop-color="#1161FE" stop-opacity="0"/>
<stop offset="1" stop-color="#1161FE" stop-opacity="0.08"/>
</linearGradient>
<linearGradient id="paint3_linear" x1="-6.34492e-07" y1="80" x2="350.349" y2="21.8508" gradientUnits="userSpaceOnUse">
<stop offset="0.693873" stop-color="#1161FE" stop-opacity="0"/>
<stop offset="1" stop-color="#1161FE" stop-opacity="0.08"/>
</linearGradient>
<linearGradient id="paint4_linear" x1="248" y1="96" x2="327.891" y2="93.0533" gradientUnits="userSpaceOnUse">
<stop stop-color="#1161FE" stop-opacity="0"/>
<stop offset="1" stop-color="#1161FE" stop-opacity="0.08"/>
</linearGradient>
<linearGradient id="paint5_linear" x1="264" y1="136" x2="359.87" y2="132.464" gradientUnits="userSpaceOnUse">
<stop stop-color="#1161FE" stop-opacity="0"/>
<stop offset="1" stop-color="#1161FE" stop-opacity="0.08"/>
</linearGradient>
</defs>
</svg>
